X:1
T:Title
%%score { 1 | ( 2 3 ) }
L:1/8
M:2/4
K:G
V:1 treble nm="Grand Piano"
V:2 bass 
V:3 bass 
V:1
 z2 z[Q:1/4=70] D/D/ | GG [FA][FA] | B>A GG | [FA][FA] [DG][DFA] |[M:3/8] B3 |[M:1/8] D/D/ | %6
[M:2/4] GG [FA][FA] | B>A GG | [EA][EA] FF |[M:3/8] G3 |[M:1/8] B/c/ |[M:2/4] dB GD/D/ | %12
 EG [Ec]>[Ec] | Bc dB |[M:3/8] [FA]3 |[M:1/8] B/c/ |[M:2/4] dB GD/D/ | EG [Ec]>[Ec] | BG AF | %19
[M:3/8] [B,G]3 |] %20
V:2
 z2 z [G,B,]/[G,B,]/ | [G,B,D][G,B,D] [D,C][D,C] | [DG]2[K:bass] z2 | [D,D][D,D] B,,D, | %4
[M:3/8][K:treble] [G,DG]3 |[M:1/8] [G,B,]/[G,B,]/ |[M:2/4] [G,B,D][G,B,D][K:bass] [D,C][D,C] | %7
 [DG]2[K:bass] z2 | [C,C][C,C] [D,A,D][D,A,D] |[M:3/8] [G,B,D]3 |[M:1/8] [G,D]/[G,A,D]/ | %11
[M:2/4] D2 z2 | .C2 z2 | [G,D][G,A,D] [G,B,D][G,DG] |[M:3/8][K:bass] [D,D]3 | %15
[M:1/8] [G,D]/[G,A,D]/ |[M:2/4] D2 z2 | .C2 z2 | [D,G,D][D,B,D] [D,F,D][D,A,C] |[M:3/8] [G,,G,]3 |] %20
V:3
 x4 | x4 | G,->[G,CD][K:bass] [G,B,D][G,B,D] | x4 |[M:3/8][K:treble] x3 |[M:1/8] x | %6
[M:2/4] x2[K:bass] x2 | G,->[G,CD][K:bass] [G,B,D][G,B,D] | x4 |[M:3/8] x3 |[M:1/8] x | %11
[M:2/4] [G,B,]G, [G,B,D][G,B,]/[G,B,]/ | [C,G,]-[C,G,E] [C,G,]>[C,G,] | x4 |[M:3/8][K:bass] x3 | %15
[M:1/8] x |[M:2/4] [G,B,]G, [G,B,D][G,B,]/[G,B,]/ | [C,G,]-[C,G,E] [C,G,]>[C,G,] | x4 | %19
[M:3/8] x3 |] %20

